X:38
T:Flute Concerto RV 428 - Largo e cantabile
C:Vivaldi, A.
M:4/4
L:1/8
Q:1/4=52
K:D
|:A2|d4 ef g2|f4 e2 d2|c4 de f2|e4 d2 c2|
B4 cd e2|d4 c2 B2|A4 GF ED|D6:|

